X: 1234
T: Karşıyaka`da İzmir`in Gülü
C: Lavtacı Hristo
O: Turkey
F: http://compmusic.upf.edu/node/140
N: kurdilihicazkar--sarki--evfer--karsiyakada--lavtaci_hristo
N: makam= kurdilihicazkar
N: form= sarki
N: usul= evfer = 9/8
M: 9/8
L: 1/16
K: C _B _e _A 
Q: 1/4=240
%%MIDI tuningsystem comma53
f2g4f2 gbag g4 f2 | fg feef edde dccd cdcB  | 
w:  ARANAĞME  |   | 
B_1/4ABc dcd_2/4e fefa gf_ed c2 | \
w:   | 
Bc dedc cBBA AGG4z2  | 
w:   | 
f2g4f2 gbag g4 f2 | fg feef edde dccd cdcB  | 
w:  ARANAĞME  |   | 
B_1/4ABc dcd_2/4e fefa gf_ed c2 | \
w:   | 
Bc dedc cBBA AGG4z2  | 
w:   | 
f3g g2g2 g4 g4 =a2 | g2 f2_2/4e2 f2g2 _2/4a2b2 c'4  | \
w:  Kar şı ya ka da  İz mir_  |  in  *  *  gü lü    | 
b2_3/4a2 g2f2 _3/4e2d2 =a2g2 f2 | 
w:  Sey ran_ e di yor  *  e lin  | 
f2 _3/4e2e2 d2d2 e2f2 g4  | f2e2 d2c2 c2B2 d2c2 B2 | \
w:  de  *  *  mü lü    |  Sey ran_ e di yor  *  e lin  | 
B2 A2A2 G2G4d4z2  | 
w:  de  *  *  mü lü   SAZ  | 
c2d2 d2d2 d4 d2_2/4e2 f2 | _3/4e3dc2 c2d2 e2f2 g2=a2  | \
w:  Be ri  ya ka da  gö nül   |  bül *  *  bü lü    | 
b2=a2 g2f2 _3/4e2d2 a2g2 f2 | 
w:  Be ri  ya ka da  *  gö nül   | 
f2 _3/4e2e2 d2d4cd efg2  | f2g2 g2g2 g4 g2g4 | \
w:  bül *  *  bü lü   SAZ  |  Ne  ga rip  ga rip  ö ter   | 
f2 _3/4e2d2 c2d2 e2f2 g4  | 
w:  yu *  *  va da    | 
f2e2 d2c2 c2B2 d2c4 | B2 A2A2 G2G4cd _3/4efg2  | \
w:  Ne  ha zin  ha zin  *  u çar   |  ha *  *  va da   SAZ  | 
f2g2 g2g2 g4 g2g4 | 
w:  Ne  ga rip  ga rip  ö ter   | 
f2 _3/4e2d2 c2d2 e2f2 g4  | f2e2 d2c2 c2B2 d2c4 | \
w:  yu *  *  va da    |  Ne  ha zin  ha zin  *  u çar   | 
B2 A2A2 G2G8-G2  | 
w:  ha *  *  va da    | 
f2g4f2 gbag g4 f2 | fg feef edde dccd cdcB  | 
w:  ARANAĞME  |   | 
B_1/4ABc dcd_2/4e fefa gf_ed c2 | \
w:   | 
Bc dedc cBBA AGG4z2  | 
w:   | 
f2g4f2 gbag g4 f2 | fg feef edde dccd cdcB  | 
w:  ARANAĞME  |   | 
B_1/4ABc dcd_2/4e fefa gf_ed c2 | \
w:   | 
Bc dedc cBBA AGG4z2  | 
w:   | 
f3g g2g2 g4 g4 =a2 | g2 f2_2/4e2 f2g2 _2/4a2b2 c'4  | \
w:  Kar şı ya ka da  İz mir_  |  in  *  *  gü lü    | 
b2_3/4a2 g2f2 _3/4e2d2 =a2g2 f2 | 
w:  Sey ran_ e di yor  *  e lin  | 
f2 _3/4e2e2 d2d2 e2f2 g4  | f2e2 d2c2 c2B2 d2c2 B2 | \
w:  de  *  *  mü lü    |  Sey ran_ e di yor  *  e lin  | 
B2 A2A2 G2G4d4z2  | 
w:  de  *  *  mü lü   SAZ  | 
c2d2 d2d2 d4 d2_2/4e2 f2 | _3/4e3dc2 c2d2 e2f2 g2=a2  | \
w:  Be ri  ya ka da  gö nül   |  bül *  *  bü lü    | 
b2=a2 g2f2 _3/4e2d2 a2g2 f2 | 
w:  Be ri  ya ka da  *  gö nül   | 
f2 _3/4e2e2 d2d4cd efg2  | f2g2 g2g2 g4 g2g4 | \
w:  bül *  *  bü lü   SAZ  |  Ne  ga rip  ga rip  ö ter   | 
f2 _3/4e2d2 c2d2 e2f2 g4  | 
w:  yu *  *  va da    | 
f2e2 d2c2 c2B2 d2c4 | B2 A2A2 G2G4cd _3/4efg2  | \
w:  Ne  ha zin  ha zin  *  u çar   |  ha *  *  va da   SAZ  | 
f2g2 g2g2 g4 g2g4 | 
w:  Ne  ga rip  ga rip  ö ter   | 
f2 _3/4e2d2 c2d2 e2f2 g4  | f2e2 d2c2 c2B2 d2c4 | \
w:  yu *  *  va da    |  Ne  ha zin  ha zin  *  u çar   | 
B2 A2A2 G2G8-G2  | 
w:  ha *  *  va da    | 
|


